package/converter/svg/duotone/square-b.svg

<svg xmlns="http://www.w3.org/2000/svg" viewBox="0 0 448 512"><!-- Font Awesome Pro 6.0.0-alpha2 by @fontawesome - https://fontawesome.com License - https://fontawesome.com/license (Commercial License) --><defs><style>.fa-secondary{opacity:.4}</style></defs><path d="M272 204C272 188.562 259.438 176 244 176H176V232H244C259.438 232 272 219.438 272 204ZM260 280H176V336H260C275.438 336 288 323.438 288 308S275.438 280 260 280ZM384 32H64C28.654 32 0 60.654 0 96V416C0 451.346 28.654 480 64 480H384C419.348 480 448 451.346 448 416V96C448 60.654 419.348 32 384 32ZM260 384H152C138.75 384 128 373.25 128 360V152C128 138.75 138.75 128 152 128H244C285.906 128 320 162.094 320 204C320 220.346 314.699 235.41 305.883 247.82C324.062 261.719 336 283.4 336 308C336 349.906 301.906 384 260 384Z" class="fa-secondary"/><path d="M305.883 247.82C314.699 235.41 320 220.346 320 204C320 162.094 285.906 128 244 128H152C138.75 128 128 138.75 128 152V360C128 373.25 138.75 384 152 384H260C301.906 384 336 349.906 336 308C336 283.4 324.062 261.719 305.883 247.82ZM176 176H244C259.438 176 272 188.562 272 204S259.438 232 244 232H176V176ZM260 336H176V280H260C275.438 280 288 292.562 288 308S275.438 336 260 336Z" class="fa-primary"/></svg>

<svg xmlns="http://www.w3.org/2000/svg" viewBox="0 0 448 512"><!--! Font Awesome Pro 6.6.0 by @fontawesome - https://fontawesome.com License - https://fontawesome.com/license (Commercial License) Copyright 2024 Fonticons, Inc. --><defs><style>.fa-secondary{opacity:.4}</style></defs><path class="fa-secondary" d="M0 96L0 416c0 35.3 28.7 64 64 64l320 0c35.3 0 64-28.7 64-64l0-320c0-35.3-28.7-64-64-64L64 32C28.7 32 0 60.7 0 96zm128 56c0-13.3 10.7-24 24-24l92 0c42 0 76 34 76 76c0 16.2-5.1 31.3-13.8 43.7C324.3 261.6 336 283.4 336 308c0 42-34 76-76 76l-108 0c-13.3 0-24-10.7-24-24l0-104 0-104zm48 24l0 56 68 0c15.5 0 28-12.5 28-28s-12.5-28-28-28l-68 0zm0 104l0 56 84 0c15.5 0 28-12.5 28-28s-12.5-28-28-28l-16 0-68 0z"/><path class="fa-primary" d="M152 128c-13.3 0-24 10.7-24 24l0 104 0 104c0 13.3 10.7 24 24 24l108 0c42 0 76-34 76-76c0-24.6-11.7-46.4-29.8-60.3c8.7-12.4 13.8-27.4 13.8-43.7c0-42-34-76-76-76l-92 0zm92 104l-68 0 0-56 68 0c15.5 0 28 12.5 28 28s-12.5 28-28 28zm-68 48l68 0 16 0c15.5 0 28 12.5 28 28s-12.5 28-28 28l-84 0 0-56z"/></svg>
